packages/katcn/src/icons/svg/brackets-solid.svg

<svg width="24" height="25" viewBox="0 0 24 25" fill="none" xmlns="http://www.w3.org/2000/svg">
<path d="M8.7 21.976C5.5 21.976 2.9 19.376 2.9 16.176V15.676C2.9 15.376 2.7 15.076 2.4 14.876C1.5 14.576 1 13.876 1 12.976C1 12.076 1.5 11.376 2.4 11.076C2.7 10.976 2.9 10.676 2.9 10.376V9.77601C2.9 6.57601 5.5 3.97601 8.7 3.97601C9.8 3.97601 10.7 4.87601 10.7 5.97601C10.7 7.07601 9.8 7.97601 8.7 7.97601C7.7 7.97601 6.9 8.77601 6.9 9.77601V10.276C6.9 11.276 6.9 14.576 6.9 15.576V16.076C6.9 17.076 7.7 17.876 8.7 17.876C9.8 17.876 10.7 18.776 10.7 19.876C10.7 20.976 9.8 21.976 8.7 21.976Z" fill="black"/>
<path d="M15.3 21.976C14.2 21.976 13.3 21.076 13.3 19.976C13.3 18.876 14.2 17.976 15.3 17.976C16.3 17.976 17.1 17.176 17.1 16.176V15.676C17.1 14.676 17.1 11.376 17.1 10.376V9.77601C17.1 8.77601 16.3 7.97601 15.3 7.97601C14.2 7.97601 13.3 7.07601 13.3 5.97601C13.3 4.87601 14.2 3.97601 15.3 3.97601C18.5 3.97601 21.1 6.57601 21.1 9.77601V10.276C21.1 10.576 21.3 10.876 21.6 11.076C22.5 11.376 23 12.076 23 12.976C23 13.876 22.5 14.576 21.6 14.876C21.3 14.976 21.1 15.276 21.1 15.676V16.176C21.1 19.376 18.5 21.976 15.3 21.976Z" fill="black"/>
</svg>

<svg xmlns="http://www.w3.org/2000/svg" fill="none" viewBox="0 0 24 25"><path fill="#000" d="M8.7 21.976c-3.2 0-5.8-2.6-5.8-5.8v-.5c0-.3-.2-.6-.5-.8-.9-.3-1.4-1-1.4-1.9s.5-1.6 1.4-1.9c.3-.1.5-.4.5-.7v-.6c0-3.2 2.6-5.8 5.8-5.8 1.1 0 2 .9 2 2s-.9 2-2 2c-1 0-1.8.8-1.8 1.8v6.3c0 1 .8 1.8 1.8 1.8 1.1 0 2 .9 2 2s-.9 2.1-2 2.1m6.6 0c-1.1 0-2-.9-2-2s.9-2 2-2c1 0 1.8-.8 1.8-1.8v-6.4c0-1-.8-1.8-1.8-1.8-1.1 0-2-.9-2-2s.9-2 2-2c3.2 0 5.8 2.6 5.8 5.8v.5c0 .3.2.6.5.8.9.3 1.4 1 1.4 1.9s-.5 1.6-1.4 1.9c-.3.1-.5.4-.5.8v.5c0 3.2-2.6 5.8-5.8 5.8"/></svg>
